public/img/ecosystem/vapor.min.svg

<svg fill="none" viewBox="0 0 36 36" xmlns="http://www.w3.org/2000/svg" xmlns:xlink="http://www.w3.org/1999/xlink"><clipPath id="a"><path d="m0 0h36v36h-36z"/></clipPath><g clip-path="url(#a)" clip-rule="evenodd" fill-rule="evenodd"><path d="m2.345 7h10.55l-5.277 11zm21.099 0h10.55l-5.276 11z" fill="#e9f9fd" fill-opacity=".1"/><g fill="#fff"><path d="m7.62 18h10.549l-5.275 11z" fill-opacity=".22"/><path d="m18.169 18h10.55l-5.275 11z" fill-opacity=".2"/><path d="m18.169 18h-10.55l5.275-11z" fill-opacity=".4"/><path d="m28.718 18h-10.55l5.276-11z" fill-opacity=".4"/><path d="m23.444 29h-10.55l5.275-11z" fill-opacity=".5"/><path d="m1.494 6.467a1 1 0 0 1 .846-.467h10.55a1 1 0 0 1 .902.568l4.373 9.12 4.373-9.12a1 1 0 0 1 .902-.568h10.55a1 1 0 0 1 .902 1.432l-10.547 21.992a1.002 1.002 0 0 1 -.905.576h-10.55a1 1 0 0 1 -.902-.568l-10.55-22a1 1 0 0 1 .056-.965zm21.95 2.846 3.686 7.687h-7.372zm-19.51-1.313 3.686 7.687 3.686-7.687h-7.373zm8.96 1.313 3.686 7.687h-7.372zm12.138-1.313 3.686 7.687 3.687-7.687zm-1.588 18.687-3.686-7.687h7.372zm-1.589 1.313-3.686-7.687-3.686 7.687zm-8.96-1.313-3.688-7.687h7.372l-3.686 7.687z"/></g></g></svg>

<svg viewBox="0 0 36 36" fill="none" xmlns="http://www.w3.org/2000/svg"><g clip-path="url(#clip0)" fill-rule="evenodd" clip-rule="evenodd"><path d="M2.345 7h10.55L7.618 18 2.345 7zm21.099 0h10.55l-5.276 11-5.274-11z" fill="#E9F9FD" fill-opacity=".1"/><path d="M7.62 18h10.549l-5.275 11L7.62 18z" fill="#fff" fill-opacity=".22"/><path d="M18.169 18h10.55l-5.275 11-5.275-11z" fill="#fff" fill-opacity=".2"/><path d="M18.169 18H7.619l5.275-11 5.275 11z" fill="#fff" fill-opacity=".4"/><path d="M28.718 18h-10.55l5.276-11 5.274 11z" fill="#fff" fill-opacity=".4"/><path d="M23.444 29h-10.55l5.275-11 5.275 11z" fill="#fff" fill-opacity=".5"/><path d="M1.494 6.467A1 1 0 0 1 2.34 6h10.55a1 1 0 0 1 .902.568l4.373 9.12 4.373-9.12A1 1 0 0 1 23.44 6h10.55a1 1 0 0 1 .902 1.432L24.345 29.424a1.002 1.002 0 0 1-.905.576H12.89a1 1 0 0 1-.902-.568l-10.55-22a1 1 0 0 1 .056-.965zm21.95 2.846L27.13 17h-7.372l3.686-7.687zM3.934 8l3.686 7.687L11.306 8H3.933h.001zm8.96 1.313L16.58 17H9.208l3.686-7.687zM25.032 8l3.686 7.687L32.405 8h-7.373zm-1.588 18.687L19.758 19h7.372l-3.686 7.687zM21.855 28l-3.686-7.687L14.483 28h7.372zm-8.96-1.313L9.207 19h7.372l-3.686 7.687h.002z" fill="#fff"/></g><defs><clipPath id="clip0"><path fill="#fff" d="M0 0h36v36H0z"/></clipPath></defs></svg>
